X:1
T:Jesus Is Coming Again
T:Jesus Is Coming Again
T:James Henry Painter
T:James Henry Painter, 1884
T:Public Domain Courtesy of the Cyber Hymnal™
T:Public Domain Courtesy of the Cyber Hymnal™
C:James Henry Painter
Z:Public Domain
Z:Courtesy of the Cyber Hymnal™
%%score ( 1 2 ) ( 3 4 )
L:1/8
Q:1/4=90
M:6/8
K:A
V:1 treble 
V:2 treble 
V:3 bass 
V:4 bass 
V:1
 (E/A/) | [Ec][DB][CA] [CA][DG][EA] | [FB][FA][DF] [CE]2 [CE] | [EA][EA][EA] [EA][DG][CA] | %4
w: 1.~O~I *|won- der when Je- sus is|com- ing a- gain, His|wait- ing be- liev- ers to|
w: 2.~O *|when will the an- gels their|shout- ing be- gin, When|Je- sus our Sav- ior will|
w: 3.~Many *|loved ones will meet us and|cheer our glad souls, Our|joys will be full then, I|
w: 4.~O *|sin- ner, de- lay not, the|time is too near, It|may be e’en now at your|
 [EB]3- [EB]2 (E/A/) | [Ec][DB][CA] [CA][DG][EA] | [FB][FA][DF] [CE]2 [CE] | %7
w: bless; * And *|ga- ther to Hea- ven His|faith- ful ones, then, And|
w: come, * To *|con- quer for- ev- er the|king- dom of sin, And|
w: know; * Halle- *|lu- jahs will ring when we|en- ter the goal, O|
w: door; * O *|come to the Sav- ior, there’s|noth- ing to fear, While|
 [EA][EA][EA] [Ec][Ec][DB] | [CA]3- [CA]2 ||"^Refrain" E | AA[CA] [CA][DG][EA] | B3- [EB]2 E | %12
w: give them sweet heav- en- ly|rest? *||||
w: take all His chos- en ones|home? *|O,|Je- sus is com- ing a-|gain! O, Je-|
w: Chris- tian, be rea- dy to|go! *||||
w: Je- sus is walk- ing be-|fore! *||||
 BB[EB] [EB][EA][EB] | c3- [Ec]2 (E/A/) | [Ec][DB][CA] [CA][DG][EA] | [FB][FA][DF] [CE]2 [CE] | %16
w: ||||
w: * sus is com- ing a-|gain! O bro- *|ther, re- joice! for the prom-|ise is sure, Yes, Je-|
w: ||||
w: ||||
 [EA][EA][EA] [Ec][Ec][DB] | [CA]3- [CA]2 |] %18
w: ||
w: sus is com- ing a- gain.||
w: ||
w: ||
V:2
 C | x6 | x6 | x6 | x5 E | x6 | x6 | x6 | x5 || x | x6 | EEE x3 | x6 | (EEE x E) x | x6 | x6 | x6 | %17
 x5 |] %18
V:3
 [A,,A,] | [A,,A,][A,,A,][A,,A,] [A,,A,][B,,E,][C,A,] | [D,A,][D,A,][D,A,] [A,,A,]2 [A,,A,] | %3
w: ~|~ ~ ~ ~ ~ ~|~ ~ ~ ~ ~|
 [C,A,][C,A,][C,A,] [C,A,][B,,E,][A,,A,] | [E,G,]3- [E,G,]2 E, | %5
w: ~ ~ ~ ~ ~ ~|~ * ~|
 [A,,A,][A,,A,][A,,A,] [A,,A,][B,,E,][C,A,] | [D,A,][D,A,][D,A,] [A,,A,]2 [A,,A,] | %7
w: ~ ~ ~ ~ ~ ~|~ ~ ~ ~ ~|
 [C,A,][C,A,][C,A,] [E,A,][E,A,][E,G,] | [A,,A,]3- [A,,A,]2 || z | %10
w: ~ ~ ~ ~ ~ ~|~ *||
 z2 [A,,E,] [A,,E,][B,,E,][C,A,] | [E,G,][E,G,][E,G,] [E,G,]2 z | z2 [E,G,] [E,G,][C,A,][E,G,] | %13
w: O, Je- sus is|com- ing a- gain!|O, Je- sus is|
 A,A,A, A,2 E, | [A,,A,][A,,A,][A,,A,] [A,,A,][B,,E,][C,A,] | [D,A,][D,A,][D,A,] [A,,A,]2 [A,,A,] | %16
w: com- ing a- gain! *|||
 [C,A,][C,A,][C,A,] [E,A,][E,A,][E,G,] | [A,,A,]3- [A,,A,]2 |] %18
w: ||
V:4
 x | x6 | x6 | x6 | x5 E, | x6 | x6 | x6 | x5 || x | x6 | x6 | x6 | A,A,A, A,2 E, | x6 | x6 | x6 | %17
 x5 |] %18

